build/system/RedoSolid.svg

<svg xmlns="http://www.w3.org/2000/svg" fill="none" viewBox="0 0 24 24" focusable="false"><path d="M0 0H24V24H0z"/><path fill="#74767B" fill-rule="evenodd" d="M3 12C3 16.9706 7.02944 21 12 21C16.9706 21 21 16.9706 21 12C21 7.02944 16.9706 3 12 3C7.02944 3 3 7.02944 3 12ZM14.7735 9.39688L13.1532 7.77651C12.8993 7.52267 12.8993 7.11112 13.1532 6.85728C13.407 6.60343 13.8186 6.60343 14.0724 6.85728L16.8024 9.58726C17.0562 9.8411 17.0562 10.2527 16.8024 10.5065L14.0724 13.2365C13.8186 13.4903 13.407 13.4903 13.1532 13.2365C12.8993 12.9826 12.8993 12.5711 13.1532 12.3172L14.7735 10.6969L10.615 10.6969C9.31712 10.6969 8.26499 11.749 8.26499 13.0469L8.26499 13.3076C8.26499 14.6055 9.31712 15.6576 10.615 15.6576L12.3234 15.6576C12.6824 15.6576 12.9734 15.9486 12.9734 16.3076C12.9734 16.6666 12.6824 16.9576 12.3234 16.9576L10.615 16.9576C8.59915 16.9576 6.96499 15.3235 6.96499 13.3076L6.96499 13.0469C6.96499 11.031 8.59915 9.39688 10.615 9.39688L14.7735 9.39688Z"/></svg>

<svg xmlns="http://www.w3.org/2000/svg" fill="none" viewBox="0 0 24 24" focusable="false"><path fill="#74767B" fill-rule="evenodd" d="M3 12c0 4.97 4.02 9 9 9a9 9 0 0 0 9-9c0-4.98-4.03-9-9-9-4.98 0-9 4.02-9 9m11.77-2.61-1.62-1.62a.64.64 0 0 1 0-.92c.25-.25.66-.25.92 0l2.73 2.73c.25.26.25.67 0 .92l-2.73 2.73a.64.64 0 0 1-.92 0 .64.64 0 0 1 0-.92l1.62-1.62h-4.16c-1.3 0-2.35 1.05-2.35 2.35v.26c0 1.3 1.05 2.35 2.35 2.35h1.71c.36 0 .65.29.65.65s-.29.65-.65.65h-1.71c-2.02 0-3.65-1.63-3.65-3.65v-.26c0-2.01 1.63-3.65 3.65-3.65z"/></svg>
